!!!!SEGMENT: pl-kk--kk-i-276--002_anonim--missa-rorate-caeli-desuper-kyrie.krn
!!!cenid: 17xx:2085
!!!COM: Anonim
!!!COM-rismid: pe30004985
!!!CDT:
!!!CNT:
!!!OPR: Missa Rorate caeli desuper
!!!OTL: Kyrie
!!!OMV: 002
!!!PDT:
!!!AGN: Sacred; Mass
!!!SMS-siglum: PL-Kk
!!!SMS-shelfmark: Kk.I.276
!!!SMS-shelfwork: 001-002 M
!!!SMS-variant:
!!!SMS-altvar:
!!!NIFC-rismid: 1001147328
!!!URL-scan: http://repozytorium.nifc.pl/skany/pl-kk-nut--i-276
!!!ONB-nifc: UWAGA: części: 1. Initiale (Rorate caeli + Benedixisti + Gloria patri), 2. Kyrie, 3. Alleluia Ave Maria
**kern	**text
*Iempty	*
*I"Baſso Ripieno.	*
*I'B rip	*
*clefF4	*
*k[b-]	*
*B-:	*
*M2/1	*
*met(C|)	*
=1-	=1-
!LO:TX:a:t=P:problem:znaki BB- B-	!
!LO:TX:t=P:problem:kreska pseudotaktowa	!
0r	.
=2-	=2-
1BB-	Ky-
2GG/	-ri-
2C/	-e
=3-	=3-
2FF/	.
*2\right	*
!LO:TX:t=P:problem:kreska pseudotaktowa	!
2F\	e-
1G	.
=4-	=4-
1.F	.
.	.
!LO:TX:t=P:problem:kreska pseudotaktowa	!
2E\	.
=5-	=5-
2.D/	-lei-
4C/	.
*lig	*
1BB-	.
=6-	=6-
1C	.
*Xlig	*
0FFl;	-son
=7||	=7||
*M2/1	*
*met(C|)	*
!LO:TX:t=P:problem:kreska pseudotaktowa	!
1r	.
(1C	Chri-
=8-	=8-
!LO:TX:t=P:problem:kreska pseudotaktowa	!
1F)	.
2D\	-ste
2E\	.
=9-	=9-
!LO:TX:t=P:problem:kreska pseudotaktowa	!
1F	.
1G	e-
=10-	=10-
2.F\	.
!LO:TX:t=P:problem:kreska pseudotaktowa	!
4E\	.
2.D\	.
!LO:TX:t=P:problem:kreska pseudotaktowa	!
4E\	.
!LO:LB:g=original	!
=11-	=11-
2F\	.
1FF	.
!LO:TX:t=P:problem:kreska pseudotaktowa	!
2F\	.
=12-	=12-
2D\	.
!LO:TX:t=P:problem:kreska pseudotaktowa	!
2E\	.
4F\	.
4E\	.
4D\	.
!LO:TX:t=P:problem:kreska pseudotaktowa	!
4C\	.
=13-	=13-
2BB-/	.
!LO:TX:t=P:problem:kreska pseudotaktowa	!
2C/	.
2.D/	.
!LO:TX:t=P:problem:kreska pseudotaktowa	!
4C/	.
=14-	=14-
2.BB-/	.
4AA/	.
4G\	lei-
4F\	.
2G\	.
=15-	=15-
0Fl;	-son
=16||	=16||
*M2/1	*
*met(C|)	*
2r	.
1F	Ky-
4E\	-ri-
!LO:TX:t=P:problem:kreska pseudotaktowa	!
4D\	.
=17-	=17-
2E\	-e
2F\	.
4BB-/	.
4C/	.
4D/	.
!LO:TX:t=P:problem:kreska pseudotaktowa	!
4E/	.
=18-	=18-
2.F\	e-
!LO:TX:t=P:problem:kreska pseudotaktowa	!
4E\	.
(4D\	.
4E\	.
4F\	.
4G\)	.
=19-	=19-
2A\	.
2E\	.
!LO:LB:g=original	!
2F\	-lei-
2G\	.
=20-	=20-
!LO:TX:t=P:problem:kreska pseudotaktowa	!
1C	-son
!LO:TX:t=P:problem:kreska pseudotaktowa	!
0r	.
=21-	=21-
.	.
!LO:TX:t=P:problem:kreska pseudotaktowa	!
1BB-	Ky-
=22-	=22-
1C	-ri-
2.D/	-e
!LO:TX:t=P:problem:kreska pseudotaktowa	!
4C/	.
=23-	=23-
4BB-/	.
4AA/	.
!LO:TX:t=P:problem:kreska pseudotaktowa	!
2GG/	e-
2.AA/	.
!LO:TX:t=P:problem:kreska pseudotaktowa	!
4BB-/	.
=24-	=24-
*lig	*
1C	-lei-
1D	.
*Xlig	*
=25-	=25-
*lig	*
1BB-	.
1C	.
*Xlig	*
=26-	=26-
0FFl;	-son
=27||	=27||
1C	Ky-
2.F\	-ri-
!LO:TX:t=P:problem:kreska pseudotaktowa	!
4F\	-e
=28-	=28-
1G	e-
2A\	lei-
1F\	.
=29-	=29-
.	.
2E\	.
*lig	*
1F	.
=30-	=30-
1BB-	.
*Xlig	*
1F	-son
!LO:LB:g=original	!
=31-	=31-
!LO:TX:t=P:problem:kreska pseudotaktowa	!
0r	.
=32-	=32-
1BB-	Ky-
2.F\	-ri-
!LO:TX:t=P:problem:kreska pseudotaktowa	!
4F\	-e
=33-	=33-
*lig	*
1G	.
!LO:TX:t=P:problem:kreska pseudotaktowa	!
1F	.
*Xlig	*
=34-	=34-
2BB-/	e-
!LO:TX:t=P:problem:kreska pseudotaktowa	!
2B-\	.
4A\	.
4G\	.
!LO:TX:t=P:problem:kreska pseudotaktowa	!
[<2F\	.
=35-	=35-
4F]	.
4E\	.
!LO:TX:t=P:problem:kreska pseudotaktowa	!
2D/	.
1C	.
=36-	=36-
2D/	.
1BB-	.
!LO:TX:t=P:problem:kreska pseudotaktowa	!
2AA/	.
=37-	=37-
(4BB-/	-lei-
4C/	.
4D/	.
4E/)	.
!LO:TX:t=P:problem:kreska pseudotaktowa	!
1F	-son
=38-	=38-
2r	.
2F\	Ky-
2D\	-ri-
!LO:TX:t=P:problem:kreska pseudotaktowa	!
2E\	-e
=39-	=39-
4F\	e-
4C\	.
1F	-lei-
2E\	.
=40-	=40-
!LO:TX:t=P:problem:kreska pseudotaktowa	!
1F	-son
1r	.
=41-	=41-
2r	.
!LO:TX:t=P:problem:kreska pseudotaktowa	!
2C/	Ky-
2AA/	-ri-
2BB-/	-e
!LO:LB:g=original	!
=42-	=42-
2FF/	e-
2.F\	-lei-
4E\	.
4D\	.
!LO:TX:t=P:problem:kreska pseudotaktowa	!
4C\	.
=43-	=43-
2BB-/	.
2AA/	.
0BB-	.
=44-	=44-
.	.
0FFl;	-son.
==	==
*-	*-
!!!RDF**kern: < = below
!!!RDF**kern: l = terminal long
!!!AIN: 1 empty
!!!ENC: Marta Lawrence
!!!END: 2021-03-28
!!!ENC: Berenika Jozajtis
!!!END: 2021-03-10
